X:706
T:The Stroll
C:Heather Bexon, 2011
L:1/8
M:4/4
S:Colin Hume's website,  colinhume.com  - chords can also be printed below the stave.
Q:1/2=76
K:C
P:A
G2G2G2 |: "C"C>DE>G- G4- | "C"G2G2 G2G2 | "Dm"F>GE>D-"G7"D4- | "G7"D2G2G2G2 |
"C"C>DE>G- G4 | "Dm"D>EF>A- A2A2 |1 "G"G4 F4 | "G7"D2G2 G2G2 :|2 "G7"G4 A4 | "G7"B4 A2B2 |
P:B
|: "F"c2A2 A2A2 | "F"A2Bc- cBA2 | "C"A2G2 G2G2 | "C"G2Ac- cAG2 |
"Dm"G2F2 F2F2 |1 "Dm"F2GA- ABc2 | "G"B4 A4 | "G7"G2G2 A2B2 :|2 "G7"B2cd- dcB2 | "C"c4- "F7"c4- | "C"c2 |]
